apps/scalable/7BD8_halo.svg

<svg xmlns="http://www.w3.org/2000/svg" style="isolation:isolate" width="256" height="256"><defs><filter id="a" width="270.648" height="254.338" x="-7.32" y="2.95" filterUnits="userSpaceOnUse"><feGaussianBlur xmlns="http://www.w3.org/2000/svg" in="SourceGraphic" stdDeviation="4.294"/><feOffset xmlns="http://www.w3.org/2000/svg" dy="4" result="pf_100_offsetBlur"/><feFlood xmlns="http://www.w3.org/2000/svg" flood-opacity=".4"/><feComposite xmlns="http://www.w3.org/2000/svg" in2="pf_100_offsetBlur" operator="in" result="pf_100_dropShadow"/><feBlend xmlns="http://www.w3.org/2000/svg" in="SourceGraphic" in2="pf_100_dropShadow"/></filter></defs><path fill="#CCC" d="M165.685 11.947c74.055 0 84.639 10.557 84.639 84.544v59.251c0 73.986-10.584 84.543-84.639 84.543h-75.37c-74.055 0-84.639-10.557-84.639-84.543V96.491c0-73.987 10.584-84.544 84.639-84.544h75.37z" filter="url(#a)"/><g opacity=".4"><linearGradient id="b" x1=".517" x2=".517" y2="1"><stop offset="0%" stop-color="#fff"/><stop offset="12.5%" stop-opacity=".098" stop-color="#fff"/><stop offset="92.5%" stop-opacity=".098"/><stop offset="100%" stop-opacity=".498"/></linearGradient><path fill="none" stroke="url(#b)" stroke-linecap="round" stroke-linejoin="round" stroke-width="4.077" d="M165.685 11.947c74.055 0 84.639 10.557 84.639 84.544v59.251c0 73.986-10.584 84.543-84.639 84.543h-75.37c-74.055 0-84.639-10.557-84.639-84.543V96.491c0-73.987 10.584-84.544 84.639-84.544h75.37z" vector-effect="non-scaling-stroke"/></g><path fill-rule="evenodd" d="M155 71C89 71 53.001 71 53.001 95l6 1.5v3l12 3v-3l6 1.5c0-4.495 5.052-7.301 11.999-9.059v6c.153-.039.326-.068.481-.106.496 11.295.588 22.3-3.867 33.469-3.909-5.024-6.922-11.028-8.613-18.305l-6 1.5v-3l-12 3v3l-6 1.5C59.17 150.02 88 172.901 114.992 183.828c.251.102.5.182.75.281 2.381.946 4.735 1.801 7.067 2.555.631.206 1.248.395 1.874.586a99.572 99.572 0 0 0 5.532 1.512c.814.198 1.625.402 2.425.574 1.848.395 3.634.698 5.391.949.571.083 1.162.191 1.723.258 2.309.274 4.54.449 6.633.457l.363-.305L161 179l-6-23.999c-12.891 0-27.555-1.131-40.758-5.25 5.356-12.176 10.758-24.027 10.758-36.75 0-12 6-12 12-12h12l5.754-5.754.246-.246c12 0 14.023 2.844 18 6 .543 2.409.932 4.277 1.382 6.352 5.916 27.236 3.919 27.616-7.383 41.648l18 11.999c19.717-16.393 18.235-30.291 13.254-49.253-.412-1.568-.803-3.104-1.254-4.746l6-6c-2.961-12.878-28.226-24-47.999-30V71z" opacity=".1"/><path fill="#2E2E2E" fill-rule="evenodd" d="M83 130.999c9.833-18 6-35.361 6-53.999l60.954-9.376L161.003 83l-6 6-6 6h-12c-6 0-12 0-12 12 0 19.004-12 35.999-18 55.16l-24-19.161-.003-12z"/><path fill="#A11919" d="M137 86a3.001 3.001 0 0 1 6 0 3.001 3.001 0 0 1-6 0z"/><path fill="#333" fill-rule="evenodd" d="M113 112.999l-12 36v18l18-54V77h-6v35.999zM95 112.999l-6 18v18l12-36V77h-6v35.999z"/><path fill="#334A6D" fill-rule="evenodd" d="M77.001 107l-24 5.999c8.775 44.131 63.443 71.892 93.383 72l14.614-12-6-24c-29.999 0-69.629-6-77.999-41.999h.002z"/><path fill="#2E2E2E" fill-rule="evenodd" d="M95 148.999c-6 0-10.503 6.077-12.984 9.094 20.391 17.053 46.674 26.84 64.373 26.906l.363-.305c-1.86-14.607-5.214-6.428-27.749-17.695-12-6-12-18-24-18H95z"/><path fill-rule="evenodd" d="M152.372 71c-8.992.001-17.307.041-25.137.117L88.997 77v14.941c11.602-2.936 28.495-2.941 36-2.941l6-6c19.193 0 22.983.109 23.754 6.246l.246-.247 6-5.999-8.625-12z" opacity=".1"/><path fill="#2E2E2E" fill-rule="evenodd" d="M172.999 95c7.675 34.031 6.163 32.899-5.999 47.999l17.999 12c21.347-17.748 17.898-32.494 12-53.999-6.406-9.306-14.966-8.739-24-6z"/><path fill-rule="evenodd" d="M182.875 93.242c-3.165.01-6.491.731-9.879 1.757.544 2.409.933 4.277 1.383 6.352l22.617 5.648 1.254-1.253c-.412-1.568-.804-3.104-1.254-4.747-4.004-5.815-8.844-7.774-14.121-7.757z" opacity=".1"/><path fill="#334A6D" fill-rule="evenodd" d="M196.999 101l6-6C200.038 82.121 174.773 71 155 65 89 65 53.001 65 53.001 89l24 6C77.001 83 113 83 125 83l6-6c24 0 24 0 24 12 12 0 14.023 2.843 17.999 6"/><path fill="#76C22B" fill-rule="evenodd" d="M59.001 90.5v3l12 3v-3l-12-3zM71.001 105.5l-12 3v2.999l12-2.999v-3z"/></svg>

<svg xmlns="http://www.w3.org/2000/svg" style="isolation:isolate" width="256" height="256" viewBox="0 0 256 256">
 <defs>
  <filter id="izMxR3a1jDw3NMuiGbap1U4aZjU2gcXM" width="270.648" height="254.338" x="-7.32" y="2.95" filterUnits="userSpaceOnUse">
   <feGaussianBlur xmlns="http://www.w3.org/2000/svg" in="SourceGraphic" stdDeviation="4.294"/>
   <feOffset xmlns="http://www.w3.org/2000/svg" dx="0" dy="4" result="pf_100_offsetBlur"/>
   <feFlood xmlns="http://www.w3.org/2000/svg" flood-opacity=".4"/>
   <feComposite xmlns="http://www.w3.org/2000/svg" in2="pf_100_offsetBlur" operator="in" result="pf_100_dropShadow"/>
   <feBlend xmlns="http://www.w3.org/2000/svg" in="SourceGraphic" in2="pf_100_dropShadow" mode="normal"/>
  </filter>
 </defs>
 <g filter="url(#izMxR3a1jDw3NMuiGbap1U4aZjU2gcXM)">
  <path fill="#CCCCCC" d="M 165.685 11.947 C 239.74 11.947 250.324 22.504 250.324 96.491 L 250.324 155.742 C 250.324 229.728 239.74 240.285 165.685 240.285 L 90.315 240.285 C 16.26 240.285 5.676 229.728 5.676 155.742 L 5.676 96.491 C 5.676 22.504 16.26 11.947 90.315 11.947 L 165.685 11.947 Z"/>
 </g>
 <g opacity=".4">
  <linearGradient id="_lgradient_11" x1=".517" x2=".517" y1="0" y2="1">
   <stop offset="0%" style="stop-color:rgb(255,255,255)"/>
   <stop offset="12.5%" stop-opacity=".098" style="stop-color:rgb(255,255,255)"/>
   <stop offset="92.5%" stop-opacity=".098" style="stop-color:rgb(0,0,0)"/>
   <stop offset="100%" stop-opacity=".498" style="stop-color:rgb(0,0,0)"/>
  </linearGradient>
  <path fill="none" stroke="url(#_lgradient_11)" stroke-linecap="round" stroke-linejoin="round" stroke-width="4.077" d="M 165.685 11.947 C 239.74 11.947 250.324 22.504 250.324 96.491 L 250.324 155.742 C 250.324 229.728 239.74 240.285 165.685 240.285 L 90.315 240.285 C 16.26 240.285 5.676 229.728 5.676 155.742 L 5.676 96.491 C 5.676 22.504 16.26 11.947 90.315 11.947 L 165.685 11.947 Z" vector-effect="non-scaling-stroke"/>
 </g>
 <g>
  <g opacity=".1">
   <path fill-rule="evenodd" d="M 155 71 C 89 71 53.001 71 53.001 95 L 59.001 96.5 L 59.001 99.5 L 71.001 102.5 L 71.001 99.5 L 77.001 101 C 77.001 96.505 82.053 93.699 89 91.941 L 89 97.941 C 89.153 97.902 89.326 97.873 89.481 97.835 C 89.977 109.13 90.069 120.135 85.614 131.304 C 81.705 126.28 78.692 120.276 77.001 112.999 L 71.001 114.499 L 71.001 111.499 L 59.001 114.499 L 59.001 117.499 L 53.001 118.999 C 59.17 150.02 88 172.901 114.992 183.828 C 115.243 183.93 115.492 184.01 115.742 184.109 C 118.123 185.055 120.477 185.91 122.809 186.664 C 123.44 186.87 124.057 187.059 124.683 187.25 C 126.558 187.82 128.398 188.322 130.215 188.762 C 131.029 188.96 131.84 189.164 132.64 189.336 C 134.488 189.731 136.274 190.034 138.031 190.285 C 138.602 190.368 139.193 190.476 139.754 190.543 C 142.063 190.817 144.294 190.992 146.387 191 L 146.75 190.695 L 161 179 L 155 155.001 C 142.109 155.001 127.445 153.87 114.242 149.751 C 119.598 137.575 125 125.724 125 113.001 C 125 101.001 131 101.001 137 101.001 L 149 101.001 L 154.754 95.247 L 155 95.001 C 167 95.001 169.023 97.845 173 101.001 C 173.543 103.41 173.932 105.278 174.382 107.353 C 180.298 134.589 178.301 134.969 166.999 149.001 L 184.999 161 C 204.716 144.607 203.234 130.709 198.253 111.747 C 197.841 110.179 197.45 108.643 196.999 107.001 L 202.999 101.001 C 200.038 88.123 174.773 77.001 155 71.001 L 155 71 Z"/>
  </g>
  <path fill="#2E2E2E" fill-rule="evenodd" d="M 83 130.999 C 92.833 112.999 89 95.638 89 77 L 149.954 67.624 L 161.003 83 L 155.003 89 L 149.003 95 L 137.003 95 C 131.003 95 125.003 95 125.003 107 C 125.003 126.004 113.003 142.999 107.003 162.16 L 83.003 142.999 L 83 130.999 Z"/>
  <path fill="#A11919" d="M 137 86 C 137 84.344 138.344 83 140 83 C 141.656 83 143 84.344 143 86 C 143 87.656 141.656 89 140 89 C 138.344 89 137 87.656 137 86 Z"/>
  <path fill="#333333" fill-rule="evenodd" d="M 113 112.999 L 101 148.999 L 101 166.999 L 119 112.999 L 119 77 L 113 77 L 113 112.999 Z"/>
  <path fill="#333333" fill-rule="evenodd" d="M 95 112.999 L 89 130.999 L 89 148.999 L 101 112.999 L 101 77 L 95 77 L 95 112.999 Z"/>
  <path fill="#334A6D" fill-rule="evenodd" d="M 77.001 107 L 53.001 112.999 C 61.776 157.13 116.444 184.891 146.384 184.999 L 160.998 172.999 L 154.998 148.999 C 124.999 148.999 85.369 142.999 76.999 107 L 77.001 107 Z"/>
  <path fill="#2E2E2E" fill-rule="evenodd" d="M 95 148.999 C 89 148.999 84.497 155.076 82.016 158.093 C 102.407 175.146 128.69 184.933 146.389 184.999 L 146.752 184.694 C 144.892 170.087 141.538 178.266 119.003 166.999 C 107.003 160.999 107.003 148.999 95.003 148.999 L 95 148.999 Z"/>
  <g opacity=".1">
   <path fill-rule="evenodd" d="M 152.372 71 C 143.38 71.001 135.065 71.041 127.235 71.117 L 88.997 77 L 88.997 91.941 C 100.599 89.005 117.492 89 124.997 89 L 130.997 83 C 150.19 83 153.98 83.109 154.751 89.246 L 154.997 88.999 L 160.997 83 L 152.372 71 Z"/>
  </g>
  <path fill="#2E2E2E" fill-rule="evenodd" d="M 172.999 95 C 180.674 129.031 179.162 127.899 167 142.999 L 184.999 154.999 C 206.346 137.251 202.897 122.505 196.999 101 C 190.593 91.694 182.033 92.261 172.999 95 Z"/>
  <g opacity=".1">
   <path fill-rule="evenodd" d="M 182.875 93.242 C 179.71 93.252 176.384 93.973 172.996 94.999 C 173.54 97.408 173.929 99.276 174.379 101.351 L 196.996 106.999 L 198.25 105.746 C 197.838 104.178 197.446 102.642 196.996 100.999 C 192.992 95.184 188.152 93.225 182.875 93.242 L 182.875 93.242 Z"/>
  </g>
  <path fill="#334A6D" fill-rule="evenodd" d="M 196.999 101 L 202.999 95 C 200.038 82.121 174.773 71 155 65 C 89 65 53.001 65 53.001 89 L 77.001 95 C 77.001 83 113 83 125 83 L 131 77 C 155 77 155 77 155 89 C 167 89 169.023 91.843 172.999 95"/>
  <path fill="#76C22B" fill-rule="evenodd" d="M 59.001 90.5 L 59.001 93.5 L 71.001 96.5 L 71.001 93.5 L 59.001 90.5 Z"/>
  <path fill="#76C22B" fill-rule="evenodd" d="M 71.001 105.5 L 59.001 108.5 L 59.001 111.499 L 71.001 108.5 L 71.001 105.5 Z"/>
 </g>
</svg>
